X:1
T:Break Forth, O Joyful Heart
T:Break Forth, O Joyful Heart
T:John Robson Sweney
T:Frances Jane (Fanny) Crosby, 1881
T:Public Domain Courtesy of the Cyber Hymnal™
C:John Robson Sweney
Z:Public Domain
Z:Courtesy of the Cyber Hymnal™
%%score ( 1 2 ) ( 3 4 )
L:1/8
M:4/4
K:Bb
V:1 treble 
V:2 treble 
V:3 bass 
V:4 bass 
V:1
 [DF]2 | [DF]3 [DB] [Fd]3 [FB] | (cB) ([FA][EG]) [DF]3 [DF] | [CE]2 [FA]2 [EG]2 [EF]2 | %4
w: 1.~Break|forth, break forth, O|joy- * ful * heart, And|make His good- ness|
w: 2.~’Twas|Je- sus sought my|wand’- * ring * soul, And|with a shep- herd’s|
w: 3.~He|is my ad- vo-|cate * with * God, My|Sav- ior and my|
w: 4.~My|soul shall mag- ni-|fy * the * Lord, My|voice His love pro-|
 [DB]6 [DF]2 | [Fd]3 [Fd] [^Fd]3 [FA] | [Ac]2 [GB]2 [EG]3 [EB] | %7
w: known, Who|all thy life, though|un- de- served, Such|
w: care He|brought me kind- ly|to His fold, And|
w: friend, His|mer- cies new with|ev- ery morn Like|
w: claim, And|ev- ery power with-|in me join To|
 [DF]2 [DB]2 ([Fd][Ec]) ([DB][CA]) | [DB]6 ||"^Refrain" [DF]2 | B3 [DB] [Fc]3 [Fc] | %11
w: love to thee * has *|shown.|||
w: still pro- tects * me *|there.|||
w: balm- y showers * de- *|scend.|Break|forth, break forth, O|
w: bless and praise * His *|name.|||
 ([Fd][Fe]) ([Fd][Ec]) [DB]2 [DF]2 | [EG]2 [GB]2 [Ac][GB][FA][EG] | [DF]6 [DF]2 | %14
w: |||
w: |||
w: joy- * ful * heart, Break|forth, no long- er si- lent|be; Break|
w: |||
 A3 [EA] [DB]3 [FB] | ([Fc][FB]) ([Fc][Bd]) !fermata![Ae]2 [Fe]2 | [Fd]2 [FB]2 [Fd][Ec][DB][CA] | %17
w: |||
w: |||
w: forth, break forth in|grate- * ful * praise To|Him who came to ran- som|
w: |||
 [DB]6 |] %18
w: |
w: |
w: Thee.|
w: |
V:2
 x2 | x8 | G2 x6 | x8 | x8 | x8 | x8 | x8 | x6 || x2 | (DEF) x5 | x8 | x8 | x8 | (EDC) x5 | x8 | %16
 x8 | x6 |] %18
V:3
 [B,,B,]2 | [B,,B,]3 [B,,F,] [B,,B,]3 [D,B,] | [E,B,]2 [E,B,]2 [B,,B,]3 [B,,B,] | %3
 [F,A,]2 [F,C]2 [F,B,]2 [F,A,]2 | [B,,B,]6 [B,,B,]2 | [B,,B,]3 [B,,B,] [D,A,]3 [D,C] | %6
 [E,B,]2 [E,E]2 [E,B,]3 [G,B,] | B,2 [B,,F,]2 F,2 [F,,F,]2 | [B,,F,]6 || [B,,B,]2 | %10
 F,3 [B,,B,] [F,A,]3 [F,A,] | ([F,B,][F,C]) ([F,B,][F,A,]) [B,,B,]2 [B,,B,]2 | %12
 [E,B,]2 [E,E]2 [E,E][E,E][E,B,][E,B,] | [B,,B,]6 [B,,B,]2 | (CB,A,)[F,C] [B,,B,]3 [D,B,] | %15
 ([F,A,][F,G,]) ([F,A,][F,B,]) !fermata![F,C]2 [F,A,]2 | [B,,B,]2 [D,B,]2 F,F,[F,,F,][F,,F,] | %17
 [B,,F,]6 |] %18
V:4
 x2 | x8 | x8 | x8 | x8 | x8 | x8 | B,2 F,2 x4 | x6 || x2 | (B,,C,D,) x5 | x8 | x8 | x8 | F,3 x5 | %15
 x8 | x4 F,F, x2 | x6 |] %18

